X:1
T:Գարուն
T:Գարուն
T:Կոմիտաս
%%score { 1 | 2 }
L:1/8
Q:1/4=50
M:3/4
K:Eb
V:1 treble nm="Piano" snm="Pia."
V:2 treble 
V:1
!pp! z2!<(! [Beg][cb] [e=a][cg]!<)! | z2 [df][c_a] [dg]f | z2 [cd]g =fd |!>(! z2 [Bc]e d2!>)! || %4
 ce dc ce | de c2 ce | de c2 [cc']2 | c2 [eac']2!mf! [cc']2 | (c(3f/A/c/ e(3G/c/g/ f(3d/A/d/ | %9
 c(3f/A/c/ e(3G/c/g/ f(3d/A/d/ |[M:4/4] c(3e/F/A/ d(3A/F/A/ e(3c/F/A/ c(3E/G/c/) | c'2 c2 c'2 c2 | %12
[M:3/4] (c(3f/A/c/ e(3G/c/g/ f(3d/A/d/ | c(3f/A/c/ e(3G/c/g/ f(3d/A/d/ | %14
[M:4/4] c(3e/F/A/ d(3A/F/A/ e(3c/F/A/ c(3E/G/c/ | %15
 (3c'/g/c/(3g/c/G/ (3c/G/C/(3G/C/G/ (3C/=A/C/(3A/C/A/ (3C/_A/C/(3A/C/A/) |[M:3/4] (ce dc) (ce) | %17
 (de c2) (ce) | (ce c2) c2 | c2 [eac']2!>(! z2!>)! |!mf! (c(3f/A/c/ e(3G/c/g/ f(3d/A/d/ | %21
 c(3f/A/c/ e(3G/c/g/ f(3d/A/d/ |[M:4/4] c(3e/F/A/ d(3A/F/A/ e(3c/F/A/ c(3E/G/c/) | %23
 (3G/E/G/(3E/G/E/ (3G/E/G/(3E/G/E/ (3A/E/A/(3E/A/E/ (3A/E/A/(3E/A/E/ | %24
[M:3/4] (c(3f/A/c/ e(3G/c/g/ f(3d/A/d/ | c(3f/A/c/ e(3G/c/g/ f(3d/F/A/ | %26
[M:4/4]!f! c(3e/F/A/ d(3A/F/A/ e(3c/F/A/ c(3E/G/c/) | c'2 c2 c'2 c2 | %28
[M:3/4]!pp! z2!<(! [Beg][cb] [e=a][cg]!<)! | z2 [df][c_a] [dg]f | z2 [cd]g =fd | %31
!>(! z2 [Bc]e d2!>)! | a2 c'2 f'2 | [cc']6 |] %34
V:2
!<(!!ped! CD E4!<)!!ped-up! |!<(!!ped! D=E F4!<)!!ped-up! |!<(!!ped! =E^F G4!<)!!ped-up! | %3
!<(!!ped! ^FG [FA]4!<)!!ped-up! ||!ped! A/G/A/G/ A/G/A/G/ A/G/A/G/!ped-up! | %5
!ped! A/G/A/G/ A/G/A/G/ A/G/A/G/!ped-up! |!ped! A/G/A/G/ A/G/A/G/ A/G/A/G/!ped-up! | %7
!ped! A/G/A/G/ !fermata![^FA]4!ped-up! | %8
[K:bass]!ped! (3A,/C/F/ z (3G,/C/!ped!E/ z (3F,/C/F/ z!ped-up! | %9
!ped! (3A,/C/F/ z (3G,/C/!ped!E/ z (3F,/C/F/ z!ped-up! | %10
[M:4/4]!ped! (3A,/C/F/ z (3G,/C/!ped!E/ z (3F,/C/F/ z!ped-up! (3C,/G,/C/ z!ped-up! | %11
[K:treble] (3B/A/B/(3A/B/A/ (3A/G/A/(3G/A/G/ (3B/A/B/(3A/B/A/ (3A/G/A/(3G/A/G/ | %12
[M:3/4][K:bass]!ped! (3A,/C/F/ z (3G,/C/!ped!E/ z (3F,/C/F/ z!ped-up! | x2!ped-up! %13
!ped! (3A,/C/F/ z (3G,/C/!ped!E/ z (3F,/C/F/ z!ped-up! | %14
[M:4/4]!ped! (3A,/C/F/ z (3G,/C/E/ z!ped! (3F,/C/F/ z!ped-up! (3C,/G,/C/ z!ped-up! | %15
[K:treble]!ped! B2 B,2!ped! =A,2 [_A,^F]2!ped-up! | %16
[M:3/4]!ped! A/G/A/G/ A/G/A/G/ A/G/A/G/ | x2!ped-up!!ped! A/G/A/G/ A/G/A/G/ A/G/A/G/!ped-up! | %18
!ped! A/G/A/G/ A/G/A/G/ A/G/A/G/!ped-up! |!ped! A/G/A/G/ A/G/A/G/ A/G/A/G/!ped-up! | %20
!ped! (3A,/C/F/ z (3G,/C/!ped!E/ z (3F,/C/F/ z!ped-up! | %21
!ped! (3A,/C/F/ z (3G,/C/!ped!E/ z (3F,/C/F/ z!ped-up! | %22
[M:4/4]!ped! (3A,/C/F/ z (3G,/C/E/ z!ped! (3F,/C/F/ z!ped-up! (3C,/G,/C/ z!ped-up! | %23
!ped! Bcde [^df]4!ped-up! | %24
[M:3/4]!ped! (3A,/C/F/ z (3G,/C/!ped!E/ z (3F,/C/F/ z!ped-up! | x2!ped-up! %25
!ped! (3A,/C/F/ z (3G,/C/E/!ped! z (3F,/C/F/ z!ped-up! | %26
[M:4/4]!ped! (3D/A/f/ z (3C/A/d/ z!ped! (3B,/_A/d/ z!ped-up! (3A,/E/c/ z!ped-up! | %27
[K:treble]!ped! (3B/A/B/(3A/B/A/ (3A/G/A/(3G/A/G/ (3B/A/B/(3A/B/A/ (3A/G/A/(3G/A/G/!ped-up! | %28
[M:3/4]!<(!!ped! CD E4!<)! | x2!ped-up!!<(!!ped! D=E F4!ped-up!!<)! | %30
!<(!!ped! =E^F G4!ped-up!!<)! |!<(!!ped! ^FG [FA]4!ped-up!!<)! | z6 | [cg]6 |] %34

